src/assets/img/figure-4.svg

<svg width="506" height="386" viewBox="0 0 506 386" fill="none" xmlns="http://www.w3.org/2000/svg">
<path d="M0.808672 274.901L63.7868 67.5075C64.7896 64.2051 67.4244 61.6533 70.7572 60.7566L292.147 1.18969C294.955 0.434278 297.952 0.938201 300.358 2.57018L501.548 139.023C504.856 141.266 506.51 145.264 505.754 149.189L472.426 322.27C471.742 325.824 469.191 328.73 465.756 329.87L299.762 384.941C297.69 385.628 295.45 385.619 293.384 384.914L7.14865 287.271C2.04655 285.531 -0.757695 280.059 0.808672 274.901Z" fill="#262631" fill-opacity="0.86"/>
</svg>

<svg xmlns="http://www.w3.org/2000/svg" width="506" height="386" fill="none" viewBox="0 0 506 386">
  <path fill="#262631" fill-opacity=".86" d="M.8087 274.901 63.7868 67.5075a9.9998 9.9998 0 0 1 6.9704-6.7509L292.147 1.1896a9.999 9.999 0 0 1 8.211 1.3806l201.19 136.4528c3.308 2.243 4.962 6.241 4.206 10.166L472.426 322.27c-.684 3.554-3.235 6.46-6.67 7.6l-165.994 55.071c-2.072.687-4.312.678-6.378-.027L7.1486 287.271c-5.102-1.74-7.9063-7.212-6.34-12.37Z"/>
</svg>
